ion/camera-reverse-sharp.svg

<svg viewBox="0 0 512 512" xmlns="http://www.w3.org/2000/svg"><path d="M456 144h-83c-3 0-6.72-1.94-9.62-5l-27.31-42.79C326 80 320 80 302 80h-92c-18 0-23 0-34.07 16.21L148.62 139c-2.22 2.42-5.34 5-8.62 5v-16 0c0-4.42-3.59-8-8-8H92v0c-4.42 0-8 3.58-8 8v16H56v0c-13.26 0-24 10.74-24 24v240 0c0 13.25 10.74 24 24 24h400v0c13.25 0 24-10.75 24-24V168v0c0-13.26-10.75-24-24-24ZM256 368c-47.82 0-87.76-34.23-95-80h-43.63L176 229.37 234.63 288H194v-.001c8.87 34.25 43.83 54.82 78.09 45.95 8.98-2.33 17.35-6.59 24.53-12.47l23.37 21.51 -3.68 3.72v0c-17.11 13.73-38.39 21.23-60.32 21.28Zm80-53.84L277.11 256H318v0c-8.99-34.34-44.1-54.89-78.43-45.91 -9.01 2.35-17.39 6.63-24.58 12.54l-23-22.64 3.14-2.45v0c17.13-13.93 38.53-21.54 60.62-21.55 47.85 0 87 34.19 94.24 80h44.92Z"/></svg>

<svg xmlns="http://www.w3.org/2000/svg" width="512" height="512" viewBox="0 0 512 512"><path d="M456,144H373c-3,0-6.72-1.94-9.62-5L336.07,96.21C326,80,320,80,302,80H210c-18,0-23,0-34.07,16.21L148.62,139c-2.22,2.42-5.34,5-8.62,5V128a8,8,0,0,0-8-8H92a8,8,0,0,0-8,8v16H56a24,24,0,0,0-24,24V408a24,24,0,0,0,24,24H456a24,24,0,0,0,24-24V168A24,24,0,0,0,456,144ZM256,368c-47.82,0-87.76-34.23-95-80H117.37L176,229.37,234.63,288H194a64.07,64.07,0,0,0,102.63,33.49L320,343l-3.68,3.72A96.64,96.64,0,0,1,256,368Zm80-53.84L277.11,256H318a64.26,64.26,0,0,0-103-33.36L192,200l3.14-2.45A96.19,96.19,0,0,1,255.76,176c47.85,0,87,34.19,94.24,80h44.92Z"/></svg>
